X:1
T:Golden Slippers
L:1/4
M:4/4
I:linebreak $
K:G
V:1 treble
V:1
 G/A/ |:"G" B B B/A/G/A/ | B B B G/A/ | B B c B |"D" B A A F/G/ |$
"D" A A/B/ A/G/F/G/ | A A A F/G/ |  A c B A |1"G" A G G G/A/ :|2"G" G G/G/ G E |:$
"G" D3 G | B A G F |"C" E3 G | c B A G |"D" FFFG|A2 F2 | $
"G"G3/2 F/ G A |"D" B A G E |"G" D3 G | B A G F |"C" E3 G | $
"C" c B A G |"D" FFFG | A2 c2 |"G" B3/2 c/ "D"B A |"G" G3 :|]$
]
